X:899
T:Wappinschaw, The
R:Reel
B:The Athole Collection
M:C|
L:1/8
K:D Minor
DEFD F3c|GFED CDEC|D>EFD F2Fc|d=BcE D/D/D D2:|
d>edA d/d/d f2|g>fed cdec|d>edA d/d/d f2|ed^ce d2D2|dedA d/d/d f2|
gfed cdec|decd ABcA|GEcE D/D/D D2||

